X:729
T:Maguire's
R:Jig
D:Four Men and a Dog: Barking Mad
S:G version from Marcas O Murchu
S:Henrik Norbeck's abc files
Z:Transcription:Henrik Norbeck(?), chords:Mike Long
M:6/8
L:1/8
K:A
"A"A2A BAB|"D"cAF FEF|"A"Ace fae|"E"fae fec|\
"A"A2A BAB|"D"cAF FEF|"A"Ace "D"faf|"E"ecB "A"A2E:|
"A"Ace "(D)"fae|"D"fae fec|"A"Acd ~e3|"E"efe ecB|\
"A"Ace "(D)"fae|"D"fae fec|"A"Ace "D"faf|"E"ecB "A"A2E||
"A"Ace "(D)"fae|"D"fae fec|"A"Acd ~e3|"E"efe ecB|\
"A"A2A BAB|"D"cAF FEF|"A"Ace "D"faf|"E"ecB "A"A2E|]
